X:291
T:Ciaran's Capers
T:Jim Ward's
R:jig
Z:id:hn-jig-291
M:6/8
K:Amix
ABc efe|cBA ~B3|AB/c/d efe|cBA ~B3|
AB/c/d efe|cBA ~B3|~a3 fge|1 cBA ABA:|2 cBA A2^g||
|:a2a fge|cBA cBA|a^ga f=ge|cBA ~B3|
~a3 fge|cBA cBA|a^ga f=ge|1 cBA ~B3:|2 cBA ABA||

